X: 1556
T: Chief O'Neill's Favorite
R: hornpipe, reel
%S:s:3 b:16(5+5+6)
B: O'Neill's 1850 #1556
O: Cronin
Z: Michael Hogan
Z: Slurs corrected by John Chambers
M: C|
L: 1/8
K: D
(de) | fef(g af)ge | fde(d dc)AG | (FE)(FD) FGA(B | c)Adc A2(ef) || fef(g af)ge |
| fde(d dc)AG | (FE)(FD) GBAG | F2D2 D2 :: (DE) | (FEF)(D FG)AB | cAd(B cA)GB |
| Add(e fd)ed | c(Adc) A2(de) || fef(g af)ge | fde(d dc)AG | (FE)(FD) GBAG | F2D2 D2 :|
%%text Most of the C notes are natural in modern playing styles.
